X:1
T:Title
%%score { ( 1 3 ) | ( 2 4 ) }
L:1/8
M:9/8
K:Ab
V:1 treble nm="Grand Piano"
V:3 treble 
V:2 bass 
V:4 bass 
V:1
 z3 z3[Q:1/4=100] [CE][CF][CG] | [CB]3 [CA]3 [CE][_C=D][=CE] | G3 F3 F[FB][Fc] | [Fd]3 [FB]3 GAB | %4
 A3 z3 [CE][CF][CG] | B3 z2 [A,_GA] [A,GA][GB][Gc] |[M:3/4] [Fd]6 |[M:3/8] [FB][Fc][Fd] | %8
[M:9/8] [Ec]3 [DB]3 [CA]3- |[M:3/4] [CA]6 |[M:3/8] [=Ec][Ec][Ec] | %11
[M:9/8] [=Ec]3 [EG]3 [EG][FA][GB] | [CFA]6 [B,FB][B,FB][B,FB] | [B,FB]3 [=DF]3 [DF][EG][FA] | %14
 G6 z3 | [CB]3 [CA]3 [_GA][GB][Gc] | [Fd]6 [Fd][Fc][FB] | %17
[M:21/16] e3 E3/2- E3 [Ed][Ec]/-[Ec]/[EB] |[M:3/4] [CA]6 |] %19
V:2
 z3 z3 [A,,A,][A,,A,][A,,A,] | [A,,E,]3 [A,,E,]3 [A,,A,][A,,A,][A,,A,] | %2
 [D,A,D]6 [D,A,D][D,A,][C,=A,] | [B,,B,]3 [D,B,]3 [E,B,D][E,A,C][E,G,D] | %4
 z3 E3 [A,,A,][A,,A,][A,,A,] | z3 A2 C, C,[B,,A,][A,,A,] |[M:3/4] [D,A,]6 | %7
[M:3/8] [D,A,][C,=A,][B,,B,] |[M:9/8] [E,A,]3 [E,G,]3 [A,,A,]3- |[M:3/4] [A,,A,]6 | %10
[M:3/8] [C,G,][C,G,][C,G,] |[M:9/8] [C,G,]3 [C,C]3 [C,C][C,C][C,C] | F,3 E,3 =D,D,D, | %13
 =D,3 [B,,B,]3 [B,,B,][B,,B,][B,,B,] | [E,B,]6 z3 | [A,,E,]3 [A,,E,]3 [C,A,][B,,A,][A,,A,] | %16
 [D,A,]6 [B,,B,][C,=A,][D,B,] |[M:21/16] [E,CE]3 [C,A,]3/2- [C,A,]3 [B,,G,][E,A,]/-[E,A,]/[E,G,] | %18
[M:3/4] [A,,A,]6 |] %19
V:3
 x9 | x9 | x9 | x9 | [A,C]6 z3 | C6 z3 |[M:3/4] x6 |[M:3/8] x3 |[M:9/8] x9 |[M:3/4] x6 | %10
[M:3/8] x3 |[M:9/8] x9 | x9 | x9 | z3 D3 [CE][CF][CG] | x9 | x9 |[M:21/16] x21/2 |[M:3/4] x6 |] %19
V:4
 x9 | x9 | x9 | x9 | A,,6 z3 | [A,,E,]6 z3 |[M:3/4] x6 |[M:3/8] x3 |[M:9/8] x9 |[M:3/4] x6 | %10
[M:3/8] x3 |[M:9/8] x9 | x9 | x9 | E3 z3 [A,,A,][A,,A,][A,,A,] | x9 | x9 |[M:21/16] x21/2 | %18
[M:3/4] x6 |] %19

